modules/hawcons-filled/icons/tennis-ball.svg

<?xml version="1.0" encoding="UTF-8" standalone="no"?>
<svg width="32px" height="32px" viewBox="0 0 32 32" version="1.1" xmlns="http://www.w3.org/2000/svg" xmlns:xlink="http://www.w3.org/1999/xlink" xmlns:sketch="http://www.bohemiancoding.com/sketch/ns">
    <!-- Generator: Sketch 3.0.3 (7891) - http://www.bohemiancoding.com/sketch -->
    <title>icon 3 tennis ball</title>
    <desc>Created with Sketch.</desc>
    <defs></defs>
    <g id="Page-1" stroke="none" stroke-width="1" fill="none" fill-rule="evenodd" sketch:type="MSPage">
        <g id="icon-3-tennis-ball" sketch:type="MSArtboardGroup" fill="#929292">
            <path d="M25,7.33477335 C22.7696023,5.265296 19.7825641,4 16.5,4 C13.2174359,4 10.2303977,5.265296 8,7.33477335 L8,7.33477335 C10.4603511,9.61761327 12,12.8790044 12,16.5 C12,20.1209956 10.4603511,23.3823867 7.99999974,25.6652264 C10.2303974,27.7347039 13.2174358,29 16.5,29 C19.7825641,29 22.7696023,27.734704 25,25.6652267 C22.5396489,23.3823867 21,20.1209956 21,16.5 C21,12.8790044 22.5396489,9.61761327 25,7.33477335 L25,7.33477335 L25,7.33477335 Z M25.7058937,8.04403932 C27.751268,10.2696426 29,13.2389927 29,16.5 C29,19.7610073 27.751268,22.7303574 25.7058937,24.9559607 C23.4272848,22.8546412 22,19.8440008 22,16.5 C22,13.1559992 23.4272848,10.1453588 25.7058937,8.04403932 L25.7058937,8.04403932 L25.7058937,8.04403932 Z M7.29410671,8.04403887 C5.24873215,10.2696422 4,13.2389925 4,16.5 C4,19.7610073 5.24873199,22.7303574 7.2941063,24.9559607 C9.57271524,22.8546412 11,19.8440008 11,16.5 C11,13.1559992 9.57271524,10.1453588 7.29410629,8.04403932 L7.29410671,8.04403887 L7.29410671,8.04403887 Z" id="tennis-ball" sketch:type="MSShapeGroup"></path>
        </g>
    </g>
</svg>

<svg width="32" height="32" viewBox="0 0 32 32" xmlns="http://www.w3.org/2000/svg"><path d="M25 7.335A12.456 12.456 0 0 0 16.5 4C13.217 4 10.23 5.265 8 7.335c2.46 2.283 4 5.544 4 9.165 0 3.621-1.54 6.882-4 9.165A12.456 12.456 0 0 0 16.5 29c3.283 0 6.27-1.265 8.5-3.335-2.46-2.283-4-5.544-4-9.165 0-3.621 1.54-6.882 4-9.165zm.706.709A12.455 12.455 0 0 1 29 16.5c0 3.261-1.249 6.23-3.294 8.456A11.47 11.47 0 0 1 22 16.5a11.47 11.47 0 0 1 3.706-8.456zm-18.412 0A12.455 12.455 0 0 0 4 16.5c0 3.261 1.249 6.23 3.294 8.456A11.47 11.47 0 0 0 11 16.5a11.47 11.47 0 0 0-3.706-8.456z" fill="#929292" fill-rule="evenodd"/></svg>
